images/Price/Stomach.svg

<?xml-stylesheet type="text/css" href="./css/style.min.css"?>
<svg width="95" height="95" viewBox="0 0 95 95"  xmlns="http://www.w3.org/2000/svg">
<g clip-path="url(#clip0)">
<path d="M57.0428 22.1062C57.0183 22.0817 56.9938 22.0572 56.9692 22.0572C49.8603 16.9093 48.3159 4.92212 48.2914 4.75053C48.1688 3.67192 47.1883 2.912 46.1097 3.03457C45.0311 3.15714 44.2712 4.13768 44.3937 5.21629C44.4673 5.75559 46.0607 18.5027 54.1257 24.8272C53.8805 25.7097 52.949 27.4257 52.6058 28.0385C52.3362 28.5288 52.1155 28.921 51.9685 29.2397C51.9439 29.2887 51.9194 29.3377 51.9194 29.3622C51.5272 30.4654 51.1595 31.5685 50.7918 32.6471C49.4926 36.5448 48.2669 40.1973 46.0362 43.4576C43.1435 47.5514 39.7852 51.1549 37.0641 53.067C35.2501 54.3172 33.24 55.2242 31.1318 56.1557C29.1953 57.0382 27.1606 57.9207 25.2486 59.1463C24.219 59.8082 23.2384 60.5436 22.3069 61.3281C20.4439 62.8479 18.6789 64.2697 16.4972 64.4903C16.1295 64.5148 15.7863 64.5639 15.4431 64.5884C13.2124 64.7845 10.8836 64.9806 8.40768 66.4269C-0.27016 71.5503 -0.0740502 83.3413 0.0240045 89.004C0.0485181 90.0826 0.906496 90.9406 1.9851 90.9406H2.00961C3.08821 90.9161 3.94619 90.0336 3.94619 88.955V88.9305C3.7746 81.0125 4.46098 73.2417 10.3443 69.7853C12.0357 68.8047 13.6781 68.6577 15.7373 68.4861C16.105 68.4615 16.4727 68.4125 16.8404 68.388C20.1742 68.0693 22.5766 66.1082 24.7338 64.3923C25.5427 63.7059 26.4007 63.0685 27.3077 62.4802C28.9992 61.4016 30.7886 60.5927 32.7007 59.7592C34.8824 58.7786 37.1622 57.7736 39.2704 56.3028C43.7319 53.165 47.7031 47.8701 49.2229 45.7129C51.7723 41.9868 53.1696 37.8685 54.4934 33.8973C54.8366 32.8677 55.2043 31.8136 55.572 30.7595C55.67 30.5879 55.8416 30.2447 56.0377 29.9261C57.435 27.4012 59.3471 23.9447 57.0428 22.1062Z" fill="#87AD3B"/>
<path d="M90.4794 28.4798C86.4347 20.9786 79.9631 16.4436 71.7755 15.365C71.751 15.365 71.7265 15.365 71.6775 15.365C71.1872 15.316 70.7214 15.316 70.2802 15.316C69.3732 15.2914 68.5397 15.2914 68.0494 14.9973C68.0249 14.9973 68.0249 14.9728 68.0004 14.9728C66.4315 14.0903 60.2541 7.00582 59.9109 1.98052C59.8373 0.901917 58.9058 0.0929659 57.8272 0.166507C56.7486 0.240048 55.9397 1.17157 56.0132 2.25017C56.43 8.7708 63.3428 16.8358 66.0638 18.4047C67.4366 19.2136 68.9074 19.2381 70.2311 19.2627C70.6234 19.2627 70.9911 19.2627 71.3343 19.3117C78.2961 20.2187 83.5666 23.9693 87.023 30.4164C89.8911 35.8094 91.3374 42.8448 91.0677 50.2724C90.3078 69.0009 81.0417 82.5814 64.9607 88.5383C60.4012 90.2542 44.5408 93.7106 31.7692 87.092C31.7692 87.092 31.7447 87.092 31.7447 87.0674C29.3914 85.8908 27.2342 83.9297 24.8809 80.8655L24.8564 80.8165C23.0178 78.3406 20.5174 74.9332 15.5902 76.8698C10.1236 78.9289 10.1236 86.8468 10.1236 90.2052C10.1236 91.2838 11.0061 92.1663 12.0847 92.1663C13.1633 92.1663 14.0458 91.2838 14.0458 90.2052C14.0458 87.8519 14.0458 81.6499 16.9875 80.5223H17.012C18.9486 79.7624 19.684 80.3752 21.7186 83.1207L21.7676 83.1698L21.7922 83.1943C24.4887 86.7488 27.1116 89.0776 30.0042 90.5239C35.5443 93.392 42.0159 94.8383 49.2229 94.8383C50.228 94.8383 51.2331 94.8138 52.2626 94.7647C58.8813 94.397 64.2498 92.9507 66.3335 92.1418C75.2074 88.8569 82.1938 83.4639 87.1456 76.0853C91.9257 68.9518 94.5732 60.274 94.9654 50.346C95.2596 42.232 93.6662 34.4856 90.4794 28.4798Z" fill="#87AD3B"/>
<path d="M84.5962 47.1836C84.2775 46.4482 83.1744 44.3155 81.0417 44.0213C81.0172 44.0213 80.9927 44.0213 80.9682 44.0213C79.9141 43.9233 77.8794 44.1929 76.139 47.2571C72.0452 53.5571 65.7206 56.9645 61.1121 58.7295C53.807 61.5731 46.4039 62.0634 38.5595 62.5537C36.5494 62.6762 34.1961 62.9214 31.9408 63.8284C28.3863 65.1766 25.8859 67.8731 25.1015 71.2315C24.3171 74.5899 25.3221 78.1198 27.8961 80.9389C29.6365 82.8019 32.1124 84.2973 35.4463 85.523C39.491 86.9938 43.7809 87.7537 48.0953 87.7292C51.2331 87.7292 54.3708 87.337 57.435 86.6016C64.3479 84.9346 70.9911 81.2331 76.6292 75.8891C80.8946 71.7708 83.6892 67.5544 85.1845 62.9704C87.0966 57.6509 86.8759 51.9147 84.5962 47.1836ZM81.4584 61.6712C81.4584 61.6957 81.4339 61.7202 81.4339 61.7202C80.1347 65.6914 77.6833 69.393 73.8837 73.0455C68.7603 77.9237 62.73 81.2821 56.479 82.8019C49.7377 84.4198 42.9229 84.1012 36.77 81.8459C34.0735 80.8409 32.0389 79.6397 30.7642 78.2669C29.0972 76.4529 28.4108 74.2222 28.9011 72.1385C29.3914 70.0548 31.0093 68.3634 33.3381 67.4809C33.3626 67.4809 33.3626 67.4809 33.3871 67.4564C35.1521 66.7455 37.1132 66.5494 38.8046 66.4513C46.5755 65.9611 54.6405 65.4463 62.4848 62.3821C71.8245 58.8276 76.8498 53.3365 79.4238 49.3408C79.4483 49.3163 79.4728 49.2673 79.4973 49.2182C79.718 48.7525 80.0611 48.3357 80.4534 47.9925C80.674 48.2377 80.8456 48.5073 80.9682 48.8015C80.9682 48.826 80.9927 48.8505 81.0172 48.875C82.8557 52.6747 83.0273 57.3322 81.4584 61.6712Z" fill="#87AD3B"/>
</g>
<defs>
<clipPath id="clip0">
<rect width="95" height="95" fill="white"/>
</clipPath>
</defs>
</svg>

<?xml-stylesheet type="text/css" href="/css/style.min.css"?><svg width="95" height="95" xmlns="http://www.w3.org/2000/svg"><g clip-path="url(#clip0)" fill="#87AD3B"><path d="M57.043 22.106c-.025-.024-.05-.049-.074-.049-7.109-5.148-8.653-17.135-8.678-17.306a1.96 1.96 0 00-2.181-1.716 1.96 1.96 0 00-1.716 2.181c.073.54 1.667 13.287 9.732 19.611-.245.883-1.177 2.599-1.52 3.211-.27.49-.49.883-.638 1.202a.412.412 0 00-.049.122c-.392 1.103-.76 2.207-1.127 3.285-1.3 3.898-2.525 7.55-4.756 10.81-2.892 4.094-6.25 7.698-8.972 9.61-1.814 1.25-3.824 2.157-5.932 3.089-1.937.882-3.971 1.765-5.883 2.99a28.525 28.525 0 00-2.942 2.182c-1.863 1.52-3.628 2.942-5.81 3.162-.367.025-.71.074-1.054.098-2.23.197-4.56.393-7.035 1.839C-.27 71.55-.074 83.34.024 89.004a1.962 1.962 0 001.961 1.937h.025a1.983 1.983 0 001.936-1.986v-.025c-.171-7.918.515-15.688 6.398-19.145 1.692-.98 3.334-1.127 5.393-1.299.368-.025.736-.074 1.103-.098 3.334-.319 5.737-2.28 7.894-3.996a24.995 24.995 0 012.574-1.912c1.691-1.078 3.48-1.887 5.393-2.72 2.181-.981 4.461-1.986 6.57-3.457 4.46-3.138 8.432-8.433 9.952-10.59 2.55-3.726 3.947-7.845 5.27-11.816.344-1.03.711-2.083 1.079-3.137.098-.172.27-.515.466-.834 1.397-2.525 3.31-5.981 1.005-7.82z"/><path d="M90.48 28.48c-4.045-7.501-10.517-12.036-18.705-13.115h-.098c-.49-.049-.956-.049-1.397-.049-.907-.025-1.74-.025-2.23-.319-.025 0-.025-.024-.05-.024-1.569-.883-7.746-7.967-8.09-12.992A1.95 1.95 0 0057.828.167a1.95 1.95 0 00-1.814 2.083c.417 6.52 7.33 14.586 10.05 16.155 1.374.809 2.844.833 4.168.858.392 0 .76 0 1.103.049 6.962.907 12.233 4.657 15.689 11.104 2.868 5.393 4.314 12.429 4.045 19.856-.76 18.729-10.026 32.31-26.107 38.266-4.56 1.716-20.42 5.173-33.192-1.446 0 0-.024 0-.024-.025-2.354-1.176-4.51-3.137-6.864-6.201l-.025-.05c-1.838-2.475-4.339-5.883-9.266-3.946-5.466 2.059-5.466 9.977-5.466 13.335 0 1.079.882 1.961 1.96 1.961a1.967 1.967 0 001.962-1.96c0-2.354 0-8.556 2.942-9.684h.024c1.937-.76 2.672-.147 4.707 2.599l.049.049.024.024c2.697 3.555 5.32 5.884 8.212 7.33 5.54 2.868 12.012 4.314 19.219 4.314 1.005 0 2.01-.024 3.04-.073 6.618-.368 11.987-1.814 14.07-2.623 8.874-3.285 15.86-8.678 20.813-16.057 4.78-7.133 7.427-15.811 7.82-25.739.294-8.114-1.3-15.86-4.487-21.866z"/><path d="M84.596 47.184c-.319-.736-1.422-2.868-3.554-3.163h-.074c-1.054-.098-3.089.172-4.829 3.236-4.094 6.3-10.418 9.708-15.027 11.473-7.305 2.843-14.708 3.333-22.553 3.824-2.01.122-4.363.367-6.618 1.274-3.555 1.349-6.055 4.045-6.84 7.403-.784 3.359.221 6.889 2.795 9.708 1.74 1.863 4.216 3.358 7.55 4.584a36.454 36.454 0 0012.65 2.206c3.137 0 6.275-.392 9.339-1.127 6.913-1.667 13.556-5.369 19.194-10.713 4.266-4.118 7.06-8.335 8.555-12.919 1.913-5.32 1.692-11.055-.588-15.786zM81.458 61.67c0 .025-.024.05-.024.05-1.3 3.97-3.75 7.672-7.55 11.325-5.124 4.878-11.154 8.236-17.405 9.756-6.741 1.618-13.556 1.3-19.709-.956-2.697-1.005-4.731-2.206-6.006-3.58-1.667-1.813-2.353-4.044-1.863-6.128.49-2.083 2.108-3.775 4.437-4.657.025 0 .025 0 .05-.025 1.764-.71 3.725-.907 5.417-1.005 7.77-.49 15.836-1.005 23.68-4.069 9.34-3.554 14.365-9.045 16.939-13.041a.534.534 0 00.073-.123c.221-.466.564-.882.956-1.226.221.246.393.515.515.81 0 .024.025.048.05.073 1.838 3.8 2.01 8.457.44 12.796z"/></g><defs><clipPath id="clip0"><path fill="#fff" d="M0 0h95v95H0z"/></clipPath></defs></svg>
